img/selected.svg

<svg width="27" height="27" viewBox="0 0 27 27" fill="none" xmlns="http://www.w3.org/2000/svg">
<rect width="27" height="27" rx="5" fill="#7BAFE4"/>
<path d="M4.65735 14.5578C4.45072 14.7984 4.35018 15.1048 4.37472 15.4215C4.39926 15.7381 4.54493 16.0263 4.78639 16.2321L10.6471 21.2561C10.8648 21.4421 11.1348 21.5418 11.4182 21.5418C11.453 21.5418 11.4886 21.5403 11.5243 21.5371C11.8449 21.5086 12.1338 21.3558 12.3381 21.108L22.3622 8.90764C22.5633 8.66222 22.6575 8.35347 22.6266 8.0376C22.5949 7.72172 22.4437 7.43672 22.1983 7.23485L20.3632 5.72752C19.8573 5.31268 19.1084 5.38552 18.692 5.89139L10.9772 15.2813L7.87706 12.6253C7.37989 12.201 6.62939 12.2572 6.20268 12.7543L4.65735 14.5578Z" fill="white"/>
</svg>

<svg width="27" height="27" fill="none" xmlns="http://www.w3.org/2000/svg"><rect width="27" height="27" rx="5" fill="#7BAFE4"/><path d="M4.657 14.558c-.206.24-.307.547-.282.864.024.316.17.604.411.81l5.861 5.024a1.18 1.18 0 00.877.281c.32-.028.61-.181.814-.429l10.024-12.2a1.185 1.185 0 00-.164-1.673l-1.835-1.507a1.19 1.19 0 00-1.671.163l-7.715 9.39-3.1-2.656a1.19 1.19 0 00-1.674.13l-1.546 1.803z" fill="#fff"/></svg>
